X:1
T:Santa Monica, CMD
T:Santa Monica, CMD
T:Charles Hutchinson Gabriel
T:Public Domain Courtesy of the Cyber Hymnal™
C:Charles Hutchinson Gabriel
Z:Public Domain
Z:Courtesy of the Cyber Hymnal™
%%score ( 1 2 ) ( 3 4 )
L:1/8
Q:1/4=113
M:4/4
K:Bb
V:1 treble 
V:2 treble 
V:3 bass 
V:4 bass 
V:1
 [DF]2 | [DB]3 [Ec] [EB]2 F2 | D2 E2 F2 F2 | [Fd]3 [Ec] [DB]2 [EA]2 | [DB]6 [DB]2 | %5
 [EB]3 [EA] [EB]2 [EG]2 | [DF]3 [DB] [Fd]2 [Fd]2 | [Fc]2 (GA) [=EB]2 [CE]2 | [CF]6 F2 | %9
 [Ec]3 [EA] [EG]2 [EA]2 | [DB]3 [EG] [DF]2 F2 | [Ec]2 [EA]2 [EG]2 F2 | [Fd]6 F2 | %13
 [EG]2 [FA]2 [FB]2 [Fc]2 | [Fd]3 [Fe] !fermata![Ff]2 [Ge]2 | [Fd] [Fd]3 [Fd]3 [Ec] | [DB]6 |] %17
V:2
 x2 | x6 F2 | D2 E2 F2 F2 | x8 | x8 | x8 | x8 | x2 F2 x4 | x6 F2 | x8 | x6 F2 | x6 F2 | x6 F2 | %13
 x8 | x8 | x8 | x6 |] %17
V:3
 [B,,B,]2 | [B,,F,]3 [B,,F,] [B,,F,]2 F,2 | D,2 E,2 F,2 F,2 | [F,B,]3 F, F,2 F,2 | %4
 [B,,F,]6 [B,,F,]2 | [E,G,]3 [E,^F,] [E,G,]2 [E,B,]2 | [B,,B,]3 [B,,B,] [B,,B,]2 [B,,B,]2 | %7
 [C,A,]2 (B,A,) [C,G,]2 [C,B,]2 | [F,A,]6 [F,A,]2 | [F,A,]3 [F,C] [F,C]2 F,2 | %10
 [B,,F,]3 [B,,B,] [B,,B,]2 [D,B,]2 | [F,A,]2 [F,C]2 [G,B,]2 [A,C]2 | B,6 [D,B,]2 | %13
 [E,B,]2 [C,C]2 [D,B,]2 [F,A,]2 | B,3 [B,C] [B,D]2 [E,B,]2 | [F,B,] [F,B,]3 [F,B,]3 F, | %16
 [B,,F,]6 |] %17
V:4
 x2 | x6 F,2 | D,2 E,2 F,2 F,2 | x3 F, F,2 F,2 | x8 | x8 | x8 | x2 C,2 x4 | x8 | x6 F,2 | x8 | x8 | %12
 B,6 x2 | x8 | B,3 x5 | x7 F, | x6 |] %17

